2023_japangoods/img/brand/side-left.svg

<svg width="69" height="614" viewBox="0 0 69 614" fill="none" xmlns="http://www.w3.org/2000/svg">
<circle cx="34.4587" cy="34.4587" r="32.8178" stroke="#F4F2EE" stroke-width="3.28178"/>
<path d="M34.7234 50.3554C34.1217 50.3554 33.6163 50.1629 33.2072 49.7778C32.7981 49.3928 32.5935 48.8753 32.5935 48.2255V44.0019H28.2255C27.696 44.0019 27.2267 43.8094 26.8176 43.4243C26.4325 43.0152 26.24 42.5459 26.24 42.0164C26.24 41.4629 26.4325 40.9936 26.8176 40.6085C27.2267 40.2235 27.696 40.0309 28.2255 40.0309H32.5935V31.367C31.6068 32.8351 30.4997 34.3152 29.2723 35.8073C28.045 37.2994 26.7454 38.7193 25.3736 40.067C24.0259 41.4148 22.6782 42.6301 21.3304 43.7131C20.8491 44.0982 20.2835 44.3027 19.6338 44.3268C18.984 44.3268 18.4545 44.0741 18.0454 43.5687C17.6603 43.0874 17.5159 42.5579 17.6122 41.9803C17.7325 41.4027 18.0454 40.9334 18.5508 40.5724C19.9947 39.4894 21.4628 38.226 22.9549 36.782C24.4711 35.3139 25.903 33.7857 27.2508 32.1973C28.5985 30.5849 29.7416 29.0567 30.6802 27.6127H20.1752C19.6458 27.6127 19.1885 27.4201 18.8035 27.0351C18.4184 26.65 18.2259 26.1928 18.2259 25.6633C18.2259 25.1098 18.4184 24.6525 18.8035 24.2915C19.1885 23.9064 19.6458 23.7139 20.1752 23.7139H32.5935V18.7683C32.5935 18.1425 32.7981 17.6371 33.2072 17.2521C33.6163 16.843 34.1217 16.6384 34.7234 16.6384C35.301 16.6384 35.7943 16.843 36.2035 17.2521C36.6126 17.6371 36.8172 18.1425 36.8172 18.7683V23.7139H49.2354C49.789 23.7139 50.2462 23.9064 50.6072 24.2915C50.9923 24.6525 51.1848 25.1098 51.1848 25.6633C51.1848 26.1928 50.9923 26.65 50.6072 27.0351C50.2462 27.4201 49.789 27.6127 49.2354 27.6127H38.8387C39.8014 29.1048 40.9686 30.645 42.3404 32.2334C43.7122 33.7977 45.1682 35.3019 46.7085 36.7459C48.2487 38.1899 49.7528 39.4774 51.2209 40.6085C51.6782 40.9455 51.9068 41.4027 51.9068 41.9803C51.9309 42.5579 51.7744 43.0513 51.4375 43.4604C51.0524 43.9177 50.5591 44.1944 49.9574 44.2907C49.3558 44.387 48.8022 44.2305 48.2968 43.8214C46.9972 42.7384 45.6616 41.5231 44.2898 40.1753C42.918 38.8276 41.5943 37.3957 40.3188 35.8795C39.0433 34.3392 37.8761 32.7749 36.8172 31.1865V40.0309H41.3296C41.8831 40.0309 42.3524 40.2235 42.7375 40.6085C43.1226 40.9936 43.3151 41.4629 43.3151 42.0164C43.3151 42.5459 43.1226 43.0152 42.7375 43.4243C42.3524 43.8094 41.8831 44.0019 41.3296 44.0019H36.8172V48.2255C36.8172 48.8753 36.6126 49.3928 36.2035 49.7778C35.7943 50.1629 35.301 50.3554 34.7234 50.3554Z" fill="#F4F2EE"/>
<g clip-path="url(#clip0_76_63353)">
<path d="M15.9278 525.773C7.29612 514.306 7.29612 498.301 15.9278 486.834C23.364 476.944 23.364 463.112 15.9278 453.222C7.29612 441.755 7.29612 425.75 15.9278 414.283C23.364 404.393 23.364 390.561 15.9278 380.671C7.29612 369.204 7.29612 353.198 15.9278 341.732C23.364 331.841 23.364 318.01 15.9278 308.12C7.29612 296.653 7.29612 280.647 15.9278 269.18C23.364 259.29 23.364 245.458 15.9278 235.568C7.29612 224.102 7.29612 208.096 15.9278 196.629C23.364 186.739 23.364 172.907 15.9278 163.017C7.29612 151.55 7.29612 135.545 15.9278 124.078C23.364 114.188 23.364 100.356 15.9278 90.4659L19.4666 87.8142C28.0982 99.281 28.0982 115.287 19.4666 126.753C12.0304 136.644 12.0304 150.475 19.4666 160.365C28.0982 171.832 28.0982 187.838 19.4666 199.305C12.0304 209.195 12.0304 223.027 19.4666 232.917C28.0982 244.383 28.0982 260.389 19.4666 271.856C12.0304 281.746 12.0304 295.578 19.4666 305.468C28.0982 316.935 28.0982 332.94 19.4666 344.407C12.0304 354.297 12.0304 368.129 19.4666 378.019C28.0982 389.486 28.0982 405.492 19.4666 416.958C12.0304 426.848 12.0304 440.68 19.4666 450.57C28.0982 462.037 28.0982 478.043 19.4666 489.51C12.0304 499.4 12.0304 513.231 19.4666 523.122L15.9278 525.773Z" fill="#F4F2EE"/>
<path d="M32.6893 525.773C24.0576 514.306 24.0576 498.301 32.6893 486.834C40.1254 476.944 40.1254 463.112 32.6893 453.222C24.0576 441.755 24.0576 425.75 32.6893 414.283C40.1254 404.393 40.1254 390.561 32.6893 380.671C24.0576 369.204 24.0576 353.198 32.6893 341.732C40.1254 331.841 40.1254 318.01 32.6893 308.12C24.0576 296.653 24.0576 280.647 32.6893 269.18C40.1254 259.29 40.1254 245.458 32.6893 235.568C24.0576 224.102 24.0576 208.096 32.6893 196.629C40.1254 186.739 40.1254 172.907 32.6893 163.017C24.0576 151.55 24.0576 135.545 32.6893 124.078C40.1254 114.188 40.1254 100.356 32.6893 90.4659L36.228 87.8142C44.8597 99.281 44.8597 115.287 36.228 126.753C28.7919 136.644 28.7919 150.475 36.228 160.365C44.8597 171.832 44.8597 187.838 36.228 199.305C28.7919 209.195 28.7919 223.027 36.228 232.917C44.8597 244.383 44.8597 260.389 36.228 271.856C28.7919 281.746 28.7919 295.578 36.228 305.468C44.8597 316.935 44.8597 332.94 36.228 344.407C28.7919 354.297 28.7919 368.129 36.228 378.019C44.8597 389.486 44.8597 405.492 36.228 416.958C28.7919 426.848 28.7919 440.68 36.228 450.57C44.8597 462.037 44.8597 478.043 36.228 489.51C28.7919 499.4 28.7919 513.231 36.228 523.122L32.6893 525.773Z" fill="#F4F2EE"/>
<path d="M50.6911 522.76L49.8186 523.414C42.6117 512.661 42.9331 498.265 50.7827 487.837L50.7832 487.836C58.6656 477.352 58.6656 462.704 50.7832 452.22L50.7827 452.219C42.598 441.346 42.598 426.159 50.7827 415.286L50.7832 415.285C58.6656 404.801 58.6656 390.152 50.7832 379.669L50.7827 379.668C42.598 368.795 42.598 353.607 50.7827 342.734L50.7832 342.734C58.6656 332.25 58.6656 317.601 50.7832 307.118L50.7827 307.117C42.598 296.244 42.598 281.056 50.7827 270.183L50.7832 270.182C58.6656 259.699 58.6656 245.05 50.7832 234.566L50.7827 234.566C42.598 223.693 42.598 208.505 50.7827 197.632L50.7832 197.631C58.6656 187.148 58.6656 172.499 50.7832 162.015L50.7827 162.014C42.598 151.141 42.598 135.954 50.7827 125.081L50.7832 125.08C58.3295 115.043 58.6513 101.189 51.7488 90.8273L52.6213 90.1735C59.8282 100.926 59.5068 115.323 51.6572 125.751L51.6566 125.751C43.7742 136.235 43.7742 150.884 51.6566 161.367L51.6572 161.368C59.8419 172.241 59.8419 187.429 51.6572 198.302L51.6566 198.303C43.7742 208.786 43.7742 223.435 51.6566 233.919L51.6572 233.919C59.8419 244.792 59.8419 259.98 51.6572 270.853L51.6566 270.854C43.7742 281.337 43.7742 295.986 51.6566 306.47L51.6572 306.471C59.8419 317.344 59.8419 332.531 51.6572 343.404L51.6566 343.405C43.7742 353.889 43.7742 368.538 51.6566 379.021L51.6572 379.022C59.8419 389.895 59.8419 405.083 51.6572 415.956L51.6566 415.956C43.7742 426.44 43.7742 441.089 51.6566 451.572L51.6572 451.573C59.8419 462.446 59.8419 477.634 51.6572 488.507L51.6566 488.508C44.1104 498.544 43.7886 512.398 50.6911 522.76Z" fill="#F4F2EE" stroke="#F4F2EE" stroke-width="3.33471"/>
</g>
<circle cx="34.4587" cy="579.129" r="32.8178" stroke="#F4F2EE" stroke-width="3.28178"/>
<path d="M44.1815 589.213C43.652 589.213 43.1948 589.045 42.8097 588.708C42.4487 588.347 42.2441 587.89 42.196 587.336C42.1719 586.855 42.3043 586.421 42.5931 586.036C42.906 585.627 43.3512 585.399 43.9288 585.351C44.6989 585.278 45.1923 585.134 45.4089 584.917C45.6255 584.701 45.7338 584.328 45.7338 583.798V568.853C45.7338 567.77 45.5412 567.048 45.1562 566.687C44.7711 566.302 44.025 566.109 42.918 566.109H40.7881C40.8122 566.182 40.8242 566.254 40.8242 566.326C40.8242 566.398 40.8242 566.47 40.8242 566.543V568.456H43.0263C43.5076 568.456 43.8806 568.612 44.1454 568.925C44.4101 569.238 44.5425 569.599 44.5425 570.008C44.5425 570.417 44.4101 570.778 44.1454 571.091C43.8806 571.38 43.5076 571.524 43.0263 571.524H40.8242V573.185H43.6761C44.1574 573.185 44.5304 573.341 44.7952 573.654C45.0599 573.967 45.1923 574.328 45.1923 574.737C45.1923 575.146 45.0599 575.507 44.7952 575.82C44.5304 576.133 44.1574 576.29 43.6761 576.29H34.5429C34.0856 576.29 33.7126 576.133 33.4238 575.82C33.1591 575.507 33.0267 575.146 33.0267 574.737C33.0267 574.328 33.1591 573.967 33.4238 573.654C33.7126 573.341 34.0856 573.185 34.5429 573.185H37.2143V571.524H35.2649C34.7836 571.524 34.4105 571.38 34.1458 571.091C33.8811 570.778 33.7487 570.417 33.7487 570.008C33.7487 569.599 33.8811 569.238 34.1458 568.925C34.4105 568.612 34.7836 568.456 35.2649 568.456H37.2143V566.543C37.2143 566.47 37.2143 566.398 37.2143 566.326C37.2143 566.254 37.2263 566.182 37.2504 566.109H35.3732C34.2661 566.109 33.5201 566.302 33.135 566.687C32.774 567.048 32.5935 567.77 32.5935 568.853V573.979C32.5935 575.977 32.4972 577.734 32.3047 579.25C32.1362 580.742 31.8595 582.102 31.4744 583.329C31.1134 584.556 30.6441 585.76 30.0665 586.939C29.8259 587.42 29.4528 587.757 28.9474 587.95C28.4661 588.118 27.9848 588.106 27.5035 587.914C26.974 587.697 26.6371 587.348 26.4927 586.867C26.3483 586.361 26.3844 585.88 26.601 585.423C27.0823 584.46 27.4794 583.449 27.7923 582.39C28.1292 581.307 28.3819 580.092 28.5504 578.744C28.7188 577.373 28.803 575.784 28.803 573.979V568.059C28.803 566.085 29.2362 564.714 30.1026 563.943C30.9931 563.149 32.4611 562.752 34.5068 562.752H43.7122C45.7819 562.752 47.2499 563.149 48.1163 563.943C48.9827 564.714 49.4159 566.085 49.4159 568.059V584.52C49.4159 586.181 49.0188 587.384 48.2246 588.13C47.4304 588.852 46.0827 589.213 44.1815 589.213ZM38.3694 594.123C35.0242 594.123 32.2566 593.882 30.0665 593.401C27.8765 592.943 26.1317 592.125 24.8321 590.946C24.4952 591.187 24.086 591.475 23.6047 591.812C23.1234 592.125 22.6661 592.426 22.2329 592.715C21.7997 593.028 21.4748 593.256 21.2582 593.401C20.7769 593.714 20.2234 593.81 19.5977 593.69C18.996 593.593 18.5508 593.28 18.262 592.751C17.9732 592.246 17.901 591.716 18.0454 591.163C18.1898 590.585 18.5267 590.164 19.0562 589.899C19.4172 589.707 19.9225 589.454 20.5723 589.141C21.2462 588.804 21.8479 588.491 22.3773 588.202V580.152C22.3773 579.575 22.2811 579.177 22.0885 578.961C21.9201 578.744 21.547 578.636 20.9694 578.636H19.6699C19.0923 578.636 18.635 578.456 18.2981 578.095C17.9611 577.734 17.7927 577.288 17.7927 576.759C17.7927 576.229 17.9611 575.784 18.2981 575.423C18.635 575.062 19.0923 574.882 19.6699 574.882H22.5578C25.0848 574.882 26.3483 576.145 26.3483 578.672V587.661C26.9981 588.311 27.8163 588.84 28.803 589.249C29.7898 589.634 31.0533 589.923 32.5935 590.116C34.1338 590.284 36.0591 590.368 38.3694 590.368C40.391 590.368 42.3524 590.344 44.2537 590.296C46.1549 590.224 47.7553 590.14 49.0549 590.043C49.7529 589.995 50.3304 590.152 50.7877 590.513C51.269 590.85 51.5097 591.331 51.5097 591.957C51.5097 592.582 51.3172 593.088 50.9321 593.473C50.547 593.858 49.9574 594.063 49.1632 594.087C48.3931 594.087 47.5147 594.087 46.528 594.087C45.5412 594.087 44.5304 594.087 43.4956 594.087C42.4848 594.111 41.5342 594.123 40.6437 594.123C39.7533 594.123 38.9952 594.123 38.3694 594.123ZM38.8748 586.217C37.5993 586.217 36.5885 586.085 35.8425 585.82C35.1205 585.555 34.6151 585.11 34.3263 584.484C34.0375 583.858 33.8931 583.004 33.8931 581.921C33.8931 580.838 34.0375 579.984 34.3263 579.358C34.6151 578.732 35.1205 578.287 35.8425 578.022C36.5885 577.758 37.5993 577.625 38.8748 577.625C40.1744 577.625 41.1852 577.758 41.9072 578.022C42.6292 578.287 43.1346 578.732 43.4234 579.358C43.7122 579.984 43.8566 580.838 43.8566 581.921C43.8566 583.004 43.7122 583.858 43.4234 584.484C43.1346 585.11 42.6292 585.555 41.9072 585.82C41.1852 586.085 40.1744 586.217 38.8748 586.217ZM26.4927 569.756C26.0835 570.141 25.6022 570.333 25.0487 570.333C24.4952 570.333 24.0259 570.116 23.6408 569.683C23.352 569.322 22.979 568.901 22.5217 568.42C22.0645 567.938 21.5952 567.469 21.1138 567.012C20.6325 566.531 20.1993 566.134 19.8142 565.821C19.4292 565.484 19.2487 565.051 19.2728 564.521C19.2968 563.992 19.4894 563.546 19.8503 563.185C20.2113 562.8 20.6445 562.584 21.1499 562.536C21.6794 562.487 22.1728 562.644 22.63 563.005C23.0391 563.366 23.4964 563.787 24.0018 564.268C24.5072 564.726 24.9885 565.183 25.4458 565.64C25.9271 566.097 26.3242 566.495 26.6371 566.831C27.0462 567.265 27.2267 567.758 27.1786 568.312C27.1545 568.865 26.9259 569.346 26.4927 569.756ZM38.8748 583.185C39.5487 583.185 39.9819 583.112 40.1744 582.968C40.391 582.799 40.4993 582.451 40.4993 581.921C40.4993 581.416 40.391 581.091 40.1744 580.946C39.9819 580.778 39.5487 580.694 38.8748 580.694C38.201 580.694 37.7557 580.778 37.5392 580.946C37.3466 581.091 37.2504 581.416 37.2504 581.921C37.2504 582.451 37.3466 582.799 37.5392 582.968C37.7557 583.112 38.201 583.185 38.8748 583.185Z" fill="#F4F2EE"/>
<defs>
<clipPath id="clip0_76_63353">
<rect width="50.0207" height="437.959" fill="white" transform="translate(9.44836 87.8142)"/>
</clipPath>
</defs>
</svg>

<svg width="69" height="614" fill="none" xmlns="http://www.w3.org/2000/svg"><circle cx="34.459" cy="34.459" r="32.818" stroke="#F4F2EE" stroke-width="3.282"/><path d="M34.723 50.355c-.601 0-1.107-.192-1.516-.577-.409-.385-.614-.903-.614-1.553v-4.223h-4.368c-.529 0-.998-.193-1.407-.578-.386-.409-.578-.878-.578-1.408 0-.553.193-1.022.578-1.407.409-.386.878-.578 1.407-.578h4.368v-8.664a57.463 57.463 0 0 1-3.32 4.44 54.5 54.5 0 0 1-3.9 4.26 50.234 50.234 0 0 1-4.043 3.646 2.809 2.809 0 0 1-1.696.614 1.95 1.95 0 0 1-1.589-.758c-.385-.482-.53-1.011-.433-1.589.12-.577.433-1.047.939-1.408a46.46 46.46 0 0 0 4.404-3.79 64.18 64.18 0 0 0 4.296-4.585c1.348-1.612 2.49-3.14 3.43-4.584H20.174c-.53 0-.986-.193-1.372-.578a1.874 1.874 0 0 1-.577-1.372c0-.553.192-1.01.578-1.372a1.874 1.874 0 0 1 1.371-.577h12.418v-4.946c0-.626.205-1.13.614-1.516.41-.409.915-.614 1.516-.614.578 0 1.071.205 1.48.614.41.385.614.89.614 1.516v4.946h12.418c.554 0 1.011.192 1.372.578.385.36.578.818.578 1.371 0 .53-.193.987-.578 1.372-.36.385-.818.578-1.372.578H38.84c.962 1.492 2.13 3.032 3.501 4.62a64.254 64.254 0 0 0 4.368 4.513 61.602 61.602 0 0 0 4.513 3.862c.457.338.686.795.686 1.372.024.578-.133 1.071-.47 1.48a2.36 2.36 0 0 1-1.48.83c-.601.097-1.155-.06-1.66-.469a66.394 66.394 0 0 1-4.007-3.646 61.663 61.663 0 0 1-3.971-4.295 56.505 56.505 0 0 1-3.502-4.694v8.845h4.513c.553 0 1.022.193 1.407.578.386.385.578.854.578 1.407 0 .53-.192 1-.578 1.408a1.916 1.916 0 0 1-1.407.578h-4.513v4.223c0 .65-.204 1.168-.614 1.553-.409.385-.902.577-1.48.577Z" fill="#F4F2EE"/><g clip-path="url(#a)" fill="#F4F2EE"><path d="M15.928 525.773c-8.632-11.467-8.632-27.472 0-38.939 7.436-9.89 7.436-23.722 0-33.612-8.632-11.467-8.632-27.472 0-38.939 7.436-9.89 7.436-23.722 0-33.612-8.632-11.467-8.632-27.473 0-38.939 7.436-9.891 7.436-23.722 0-33.612-8.632-11.467-8.632-27.473 0-38.94 7.436-9.89 7.436-23.722 0-33.612-8.632-11.466-8.632-27.472 0-38.939 7.436-9.89 7.436-23.722 0-33.612-8.632-11.467-8.632-27.472 0-38.939 7.436-9.89 7.436-23.722 0-33.612l3.539-2.652c8.631 11.467 8.631 27.473 0 38.939-7.437 9.891-7.437 23.722 0 33.612 8.631 11.467 8.631 27.473 0 38.94-7.437 9.89-7.437 23.722 0 33.612 8.631 11.466 8.631 27.472 0 38.939-7.437 9.89-7.437 23.722 0 33.612 8.631 11.467 8.631 27.472 0 38.939-7.437 9.89-7.437 23.722 0 33.612 8.631 11.467 8.631 27.473 0 38.939-7.437 9.89-7.437 23.722 0 33.612 8.631 11.467 8.631 27.473 0 38.94-7.437 9.89-7.437 23.721 0 33.612l-3.54 2.651Z"/><path d="M32.69 525.773c-8.632-11.467-8.632-27.472 0-38.939 7.435-9.89 7.435-23.722 0-33.612-8.632-11.467-8.632-27.472 0-38.939 7.435-9.89 7.435-23.722 0-33.612-8.632-11.467-8.632-27.473 0-38.939 7.435-9.891 7.435-23.722 0-33.612-8.632-11.467-8.632-27.473 0-38.94 7.435-9.89 7.435-23.722 0-33.612-8.632-11.466-8.632-27.472 0-38.939 7.435-9.89 7.435-23.722 0-33.612-8.632-11.467-8.632-27.472 0-38.939 7.435-9.89 7.435-23.722 0-33.612l3.538-2.652c8.632 11.467 8.632 27.473 0 38.939-7.436 9.891-7.436 23.722 0 33.612 8.632 11.467 8.632 27.473 0 38.94-7.436 9.89-7.436 23.722 0 33.612 8.632 11.466 8.632 27.472 0 38.939-7.436 9.89-7.436 23.722 0 33.612 8.632 11.467 8.632 27.472 0 38.939-7.436 9.89-7.436 23.722 0 33.612 8.632 11.467 8.632 27.473 0 38.939-7.436 9.89-7.436 23.722 0 33.612 8.632 11.467 8.632 27.473 0 38.94-7.436 9.89-7.436 23.721 0 33.612l-3.539 2.651Z"/><path d="m50.691 522.76-.872.654c-7.207-10.753-6.886-25.149.964-35.577v-.001c7.883-10.484 7.883-25.132 0-35.616v-.001c-8.185-10.873-8.185-26.06 0-36.933v-.001c7.883-10.484 7.883-25.133 0-35.616v-.001c-8.185-10.873-8.185-26.061 0-36.934 7.883-10.484 7.883-25.133 0-35.616v-.001c-8.185-10.873-8.185-26.061 0-36.934v-.001c7.883-10.483 7.883-25.132 0-35.616-8.185-10.873-8.185-26.061 0-36.934v-.001c7.883-10.483 7.883-25.132 0-35.616v-.001c-8.185-10.873-8.185-26.06 0-36.933v-.001c7.547-10.037 7.868-23.891.966-34.253l.872-.653c7.207 10.752 6.886 25.149-.964 35.577-7.883 10.484-7.883 25.133 0 35.616v.001c8.185 10.873 8.185 26.061 0 36.934v.001c-7.883 10.483-7.883 25.132 0 35.616 8.185 10.873 8.185 26.061 0 36.934v.001c-7.883 10.483-7.883 25.132 0 35.616v.001c8.185 10.873 8.185 26.06 0 36.933v.001c-7.883 10.484-7.883 25.133 0 35.616v.001c8.185 10.873 8.185 26.061 0 36.934-7.883 10.484-7.883 25.133 0 35.616v.001c8.185 10.873 8.185 26.061 0 36.934v.001c-7.547 10.036-7.868 23.89-.966 34.252Z" stroke="#F4F2EE" stroke-width="3.335"/></g><circle cx="34.459" cy="579.129" r="32.818" stroke="#F4F2EE" stroke-width="3.282"/><path d="M44.181 589.213c-.529 0-.986-.168-1.371-.505-.361-.361-.566-.818-.614-1.372a1.943 1.943 0 0 1 .397-1.3c.313-.409.758-.637 1.336-.685.77-.073 1.263-.217 1.48-.434.217-.216.325-.589.325-1.119v-14.945c0-1.083-.193-1.805-.578-2.166-.385-.385-1.131-.578-2.238-.578h-2.13a.687.687 0 0 1 .036.217v2.13h2.202c.482 0 .855.156 1.12.469.264.313.396.674.396 1.083 0 .409-.132.77-.397 1.083-.264.289-.637.433-1.119.433h-2.202v1.661h2.852c.481 0 .854.156 1.12.469.264.313.396.674.396 1.083 0 .409-.132.77-.397 1.083-.265.313-.638.47-1.119.47h-9.133c-.457 0-.83-.157-1.12-.47a1.628 1.628 0 0 1-.396-1.083c0-.409.132-.77.397-1.083.289-.313.662-.469 1.119-.469h2.671v-1.661h-1.95c-.48 0-.854-.144-1.118-.433a1.628 1.628 0 0 1-.397-1.083c0-.409.132-.77.397-1.083.264-.313.638-.469 1.119-.469h1.95v-2.13c0-.072.011-.144.035-.217h-1.877c-1.107 0-1.853.193-2.238.578-.361.361-.541 1.083-.541 2.166v5.126c0 1.998-.097 3.755-.29 5.271-.168 1.492-.445 2.852-.83 4.079a22.868 22.868 0 0 1-1.407 3.61c-.241.481-.614.818-1.12 1.011a2 2 0 0 1-1.444-.036c-.529-.217-.866-.566-1.01-1.047a1.99 1.99 0 0 1 .108-1.444c.481-.963.878-1.974 1.191-3.033.337-1.083.59-2.298.758-3.646.169-1.371.253-2.96.253-4.765v-5.92c0-1.974.433-3.345 1.3-4.116.89-.794 2.358-1.191 4.404-1.191h9.205c2.07 0 3.538.397 4.404 1.191.867.771 1.3 2.142 1.3 4.116v16.461c0 1.661-.397 2.864-1.191 3.61-.795.722-2.142 1.083-4.044 1.083Zm-5.812 4.91c-3.345 0-6.112-.241-8.302-.722-2.19-.458-3.935-1.276-5.235-2.455-.337.241-.746.529-1.227.866-.482.313-.939.614-1.372.903-.433.313-.758.541-.975.686-.481.313-1.035.409-1.66.289-.602-.097-1.047-.41-1.336-.939a2.047 2.047 0 0 1-.217-1.588 1.853 1.853 0 0 1 1.011-1.264c.361-.192.866-.445 1.516-.758.674-.337 1.276-.65 1.805-.939v-8.05c0-.577-.096-.975-.288-1.191-.169-.217-.542-.325-1.12-.325h-1.3c-.577 0-1.034-.18-1.37-.541-.338-.361-.506-.807-.506-1.336 0-.53.168-.975.505-1.336.337-.361.794-.541 1.372-.541h2.888c2.527 0 3.79 1.263 3.79 3.79v8.989c.65.65 1.468 1.179 2.455 1.588.987.385 2.25.674 3.79.867 1.54.168 3.466.252 5.776.252 2.022 0 3.983-.024 5.885-.072a134.9 134.9 0 0 0 4.8-.253c.699-.048 1.276.109 1.734.47.481.337.722.818.722 1.444 0 .625-.193 1.131-.578 1.516-.385.385-.975.59-1.769.614h-5.667c-1.011.024-1.962.036-2.852.036h-2.275Zm.506-7.906c-1.276 0-2.286-.132-3.032-.397-.723-.265-1.228-.71-1.517-1.336-.288-.626-.433-1.48-.433-2.563 0-1.083.145-1.937.433-2.563.29-.626.794-1.071 1.517-1.336.745-.264 1.756-.397 3.032-.397 1.3 0 2.31.133 3.032.397.722.265 1.228.71 1.516 1.336.29.626.434 1.48.434 2.563 0 1.083-.145 1.937-.434 2.563-.288.626-.794 1.071-1.516 1.336-.722.265-1.733.397-3.032.397Zm-12.382-16.461c-.41.385-.89.577-1.444.577-.554 0-1.023-.217-1.408-.65a20.243 20.243 0 0 0-1.12-1.263 37.993 37.993 0 0 0-1.407-1.408 17.5 17.5 0 0 0-1.3-1.191c-.385-.337-.565-.77-.541-1.3.024-.529.216-.975.577-1.336a1.99 1.99 0 0 1 1.3-.649c.53-.049 1.023.108 1.48.469.41.361.866.782 1.372 1.263.505.458.986.915 1.444 1.372.481.457.878.855 1.191 1.191.41.434.59.927.542 1.481-.024.553-.253 1.034-.686 1.444Zm12.382 13.429c.674 0 1.107-.073 1.3-.217.216-.169.324-.517.324-1.047 0-.505-.108-.83-.325-.975-.192-.168-.625-.252-1.3-.252-.673 0-1.118.084-1.335.252-.192.145-.289.47-.289.975 0 .53.097.878.29 1.047.216.144.661.217 1.335.217Z" fill="#F4F2EE"/><defs><clipPath id="a"><path fill="#fff" transform="translate(9.448 87.814)" d="M0 0h50.021v437.959H0z"/></clipPath></defs></svg>
